!!!COM: Bach, Johann Sebastian
!!!OPR: Joh. Seb. Bachs vierstimmige Choralgesänge
!!!XEN: Four-part Chorales
!!!OTL: Chorale 127. Meinen Jesum lass' ich nicht, weil
!!!SCT: BWV 380
!!!SCA: Thematisch-systematisches Verzeichnis der musikalischen Werke Johann Sebastian Bach: Bach-Werke-Verzeichnis (Schmieder)
!!!YOR: Bach Gesellschaft Edition xxxix
!!!ENC: Steven Rasmussen
!!!CDT: 1685/3//-1750/7/28/
!!!OCY: Deutschland
!!!YEC: Copyright (c) 1994, 2000 Center for Computer Assisted Research in the Humanities
!!!YEM: Rights to all derivative editions reserved
!!!YEN: United States of America
**kern	**kern	**kern	**kern	**silbe
*I:[BASSO]	*I:[TENORE]	*I:[ALTO]	*I:[SOPRANO]	*I:[SOPRANO]
*clefF4	*clefGv2	*clefG2	*clefG2	*
*k[b-e-a-]	*k[b-e-a-]	*k[b-e-a-]	*k[b-e-a-]	*
*E-:	*E-:	*E-:	*E-:	*
*M4/4	*M4/4	*M4/4	*M4/4	*
=1-	=1-	=1-	=1-	=1-
8E-L	4e-	4g	4b-	Mei-
8FJ	.	.	.	.
8GL	4e-	4g	4b-	-nen
8E-J	.	.	.	.
8A-L	4c	4e-	4cc	Je-
8GJ	.	.	.	.
8A-L	4f	4a-	4cc	-sum
8FJ	.	.	.	.
=2	=2	=2	=2	=2
4B-	8fL	8a-L	4dd	lass'
.	8e-J	8gJ	.	.
4BB-	8fL	4a-	8ddL	ich
.	8dJ	.	16ee-L	.
.	.	.	16ffJJ	.
2E-;	2B-;	2g;	2ee-;	nicht,
=3	=3	=3	=3	=3
8BB-L	8dL	4b-	4ff	weil
8CJ	8e-J	.	.	.
8DL	8fL	8b-L	4ff	er
8BB-J	8dJ	8a-J	.	.
8CL	8dL	4g	4ee-	sich
8DJ	16cL	.	.	.
.	16BnJJ	.	.	.
8E-L	4c	8gL	4ee-	fÃ¼r
8FJ	.	8anJ	.	.
=4	=4	=4	=4	=4
8GL	4B-	8b-L	4dd	mich
8FJ	.	8anJ	.	.
8E-L	4B-	8gL	8ccL	ge-
8CJ	.	8e-J	16ddL	.
.	.	.	16ee-JJ	.
4F	8B-L	4.f	2cc	-ge-
.	8GJ	.	.	.
4FF	4An	.	.	.
.	.	8e-	.	.
=5	=5	=5	=5	=5
2BB-;	2F;	2d;	2b-;	-ben:
8E-L	8GL	4e-	4b-	so
8FJ	8A-J	.	.	.
8GL	8B-L	4e-	4b-	er-
8E-J	8GJ	.	.	.
=6	=6	=6	=6	=6
8A-L	8A-L	4e-	4cc	-for-
8GJ	8B-J	.	.	.
8FL	4c	4a-	4cc	-dert
8E-J	.	.	.	.
8DL	8FL	8a-L	4b-	mei-
8EnJ	8GJ	8gJ	.	.
4F	8A-L	4f	8a-L	-ne
.	8B-J	.	8gJ	.
=7	=7	=7	=7	=7
2C;	2c;	2en;	2g;	Pflicht,
8GL	8B-L	8eL	4b-	klet-
8FJ	8A-J	8fJ	.	.
8EnL	4G	8gL	4b-	-ten-
8CJ	.	8eJ	.	.
=8	=8	=8	=8	=8
8FL	4A-	4c	4a-	-weis
8E-J	.	.	.	.
8DL	4B-	8fL	4a-	an
8BB-J	.	8dJ	.	.
8E-L	4B-	4e-	4g	ihm
8GJ	.	.	.	.
8A-L	8cL	4e-	8fL	zu
8FJ	8A-J	.	16gL	.
.	.	.	16a-JJ	.
=9	=9	=9	=9	=9
4B-	8B-L	4e-	2f	kle-
.	8GJ	.	.	.
4BB-	4A-	4d	.	.
2E-;	2G;	2B-;	2e-;	-ben.
=10	=10	=10	=10	=10
8e-L	4e-	4g	4b-	Er
8d-J	.	.	.	.
8cL	4e-	4g	4b-	ist
8B-J	.	.	.	.
8A-L	4e-	4a-	4cc	mei-
8GJ	.	.	.	.
8FL	4f	8a-L	4cc	-nes
8E-J	.	8gJ	.	.
=11	=11	=11	=11	=11
8DL	8BnL	4f	4dd	Le-
8CJ	8cJ	.	.	.
8BBnL	8dL	4g	8ddL	-bens
8GGJ	8BJ	.	16ee-L	.
.	.	.	16ffJJ	.
2C;	2c;	2g;	2ee-;	Licht,
=12	=12	=12	=12	=12
8E-L	4G	4e-	4b-	mei-
8D-J	.	.	.	.
8CL	4G	4e-	8b-L	-nen
8BB-J	.	.	16ccL	.
.	.	.	16dd-JJ	.
8AA-L	8A-L	8e-L	8ccL	Je-
8BB-J	8FJ	8dJ	8b-J	.
8CL	8E-L	4e-	8a-L	-sum
8BB-J	8B-J	.	8gJ	.
=13	=13	=13	=13	=13
4AA-	4c	4e-	8fL	lass'
.	.	.	16gL	.
.	.	.	16a-JJ	.
4BB-	8B-L	4d	4f	ich
.	8A-J	.	.	.
2E-;	2G;	2B-;	2e-;	nicht.
==|!	==|!	==|!	==|!	==|!
*-	*-	*-	*-	*-
!!!RWG: Key is interpreted using the Humdrum key tool.
!!!URL-pdf: https://s9.imslp.org/files/imglnks/usimg/7/7a/IMSLP04155-Bach_-_BGA_253-438.pdf#page=70 	Bach-Gesellschaft Ausgabe, Band 39 (pp.175-276) Leipzig: Breitkopf und Härtel, 1892. Plate B.W. XXXIX.
!!!END: 1994/07/18
!!!EMD: Converted from MuseData to Humdrum Dec 19, 2000, by Andreas Kornstaedt using muse2kern.
!!!EED: Craig Stuart Sapp
!!!EEV: 2024/03/31
!!!filter-keyboard: satb2gs
!!!title: @{OTL} (@{SCT})
